media/preview-medium.svg

<svg width="17" height="21" viewBox="0 0 17 21" xmlns="http://www.w3.org/2000/svg"><path d="M14.438 0h-12.25c-1.208 0-2.188.98-2.188 2.188v16.625c0 1.207.98 2.187 2.188 2.187h12.25c1.207 0 2.187-.98 2.187-2.188v-16.624c0-1.208-.98-2.188-2.188-2.188zm-6.127 20.125a1.31 1.31 0 0 1-1.311-1.313 1.31 1.31 0 0 1 1.313-1.312 1.31 1.31 0 0 1 1.312 1.313 1.31 1.31 0 0 1-1.313 1.312zm6.563-3.5h-13.124v-14h13.125v14z" fill="#4A4A4A" fill-rule="evenodd"/></svg>

<svg width="17" height="21" viewBox="0 0 17 21" xmlns="http://www.w3.org/2000/svg"><path d="M14.438 0H2.188C.98 0 0 .98 0 2.188v16.625C0 20.02.98 21 2.188 21h12.25c1.207 0 2.187-.98 2.187-2.188V2.188C16.625.98 15.645 0 14.437 0zM8.311 20.125A1.31 1.31 0 0 1 7 18.812 1.31 1.31 0 0 1 8.313 17.5a1.31 1.31 0 0 1 1.312 1.313 1.31 1.31 0 0 1-1.313 1.312zm6.563-3.5H1.75v-14h13.125v14z" fill="#4A4A4A" fill-rule="evenodd"/></svg>
